X: 28
T: Missa Se mieulx ne vient &mdash; Sanctus
C: Gaspar van Weerbeke
%%abc-version 2.0
%%abcx-abcm2ps-target-version 5.9.1 (29 Sep 2008)
%%abc-creator hum2abc beta
%%abcx-conversion-date 2022/03/06 13:05:54
%%abc-copyright Copyright 2014, Pavanello, Agnese
%%abc-edited-by Mair-Gruber, Roland
%%humdrum-veritas 3073571969
%%humdrum-veritas-data 497751503
%%linebreak <none>
%%barnumbers 0
L: 1/4
M: 3/2
N: Derived from Gas0104d-Missa_Se_mieulx_ne_vient-Sanctus.krn
%%staves [1 2 3 4]
V: 1 clef=treble
V: 2 clef=treble-8
V: 3 clef=treble-8
V: 4 clef=bass
K: C
[V:1] D4F2 | 
[V:2] z6 | 
[V:3] z6 | 
[V:4] D,6 | 
[V:1] ED2G2F | 
[V:2] z2z2D2 | 
[V:3] z6 | 
[V:4] G,4A,2 | 
[V:1] G>FDGE3/F/ | 
[V:2] G4A2 | 
[V:3] z6 | 
[V:4] B,2>B,2CB,/A,/ | 
[V:1] G2z2z2 | 
[V:2] B2>B2cB/A/ | 
[V:3] z6 | 
[V:4] G,2E,D,C,E,- | 
[V:1] z6 | 
[V:2] Gd2B2A | 
[V:3] z6 | 
[V:4] E,D,2G,2F, | 
[V:1] DG2GA3/G//A// | 
[V:2] BE>DG2^F | 
[V:3] z6 | 
[V:4] G,2C,B,,A,,2 | 
[V:1] B2G2d3/c/ | 
[V:2] G2G>A B/c/d- | 
[V:3] z2z2D2 | 
[V:4] G,,6 | 
[V:1] B/A/B2Gc2 | 
[V:2] dD2G2^F | 
[V:3] G4A2 | 
[V:4] G,,2B,,2A,,2 | 
[V:1] BGBd2B | 
[V:2] G2<d2BG | 
[V:3] B6 | 
[V:4] G,,4G,2 | 
[V:1] A2>G2A2 | 
[V:2] A>B c/d/ecf | 
[V:3] c4cB/A/ | 
[V:4] F,2>E,2F,2 | 
[V:1] B2>A2B2 | 
[V:2] eddf>ef | 
[V:3] G2d4 | 
[V:4] G,2>F,2D,2 | 
[V:1] c>BGAB3/G/ | 
[V:2] g2>f2d3/e/ | 
[V:3] e3d/c/B2 | 
[V:4] C,2E,F,G,2 | 
[V:1] AG2^FG2 | 
[V:2] fd2cd2 | 
[V:3] cBc2B2 | 
[V:4] F,G,A,2G,2 | 
[V:1] d2A>Bc2 | 
[V:2] d>ef>ga2 | 
[V:3] G2dc/B/A2 | 
[V:4] z2z2F,2 | 
[V:1] BA2G2^F | 
[V:2] df2cd2 | 
[V:3] GDFGA2 | 
[V:4] G,F,D,E,D,2 | 
[V:1] G6 | 
[V:2] BGg>f e/d/c- | 
[V:3] G4z2 | 
[V:4] E,2C,2E,2 | 
[V:1] z6 | 
[V:2] cAGB2c | 
[V:3] z2z2G2 | 
[V:4] F,2E,G,2E, | 
[V:1] D2E2DF- | 
[V:2] d2G2BA | 
[V:3] B2c2Bd- | 
[V:4] D,2C,2G,F, | 
[V:1] FA2GA2 | 
[V:2] z2d>e f/g/a | 
[V:3] d/c/A_BA/G<FD/ | 
[V:4] D,2G,2zD, | 
[V:1] z6 | 
[V:2] ga2fe2 | 
[V:3] ED2d2^c | 
[V:4] G,F,D,2A,2 | 
[V:1] A2BA2d- | 
[V:2] d2z2z2 | 
[V:3] d4f2- | 
[V:4] zD,G,F,D,2- | 
[V:1] dABc>BG | 
[V:2] z6 | 
[V:3] f2e4 | 
[V:4] D,F,G,A,>G,E, | 
[V:1] AB>AA>GF | 
[V:2] d2ef>ed | 
[V:3] d6 | 
[V:4] F,G,>F,D,>E,F,/G,/ | 
[V:1] E4C3/D/ | 
[V:2] c3A2G/F/ | 
[V:3] z6 | 
[V:4] A,4A,,2 | 
[V:1] EFECE3/F/ | 
[V:2] EDzA>Bc/d/ | 
[V:3] z6 | 
[V:4] C,D,A,,2zA,, | 
[V:1] G/A/FEA>GF/E/ | 
[V:2] BAc>BA3/G/ | 
[V:3] z6 | 
[V:4] E,F,C,2D,2 | 
[V:1] GF/ED/D2^C | 
[V:2] ED/GD/FE2 | 
[V:3] z6 | 
[V:4] E,F,/C,B,,/D,A,,2 | 
[V:1] D4z2 | 
[V:2] D2zd2c- | 
[V:3] f6 | 
[V:4] z2D,>E, F,/G,/A,- | 
[V:1] z6 | 
[V:2] cBABGA | 
[V:3] e2decd- | 
[V:4] A,G,F,G,E,D,/C,/ | 
[V:1] z6 | 
[V:2] zF2E2D | 
[V:3] d/c/B/A/BA2^G | 
[V:4] B,,/A,,/D,2C,B,,2 | 
[V:1] z6 | 
[V:2] E2zGAF | 
[V:3] A2z2z2 | 
[V:4] A,,2G,,B,,A,,2 | 
[V:1] zGAFGB | 
[V:2] GBAdBG | 
[V:3] z2z2zG | 
[V:4] G,,G,F,D,G,2 | 
[V:1] AcBG2^F | 
[V:2] cAGd3 | 
[V:3] AFGBA2 | 
[V:4] z2zG,,D,2 | 
[V:1] G2z2G2 | 
[V:2] BB>AG/F/G2 | 
[V:3] G>A B/c/d2c | 
[V:4] E,G,>F,E,/D,/E,2 | 
[V:1] F>G A/B<cB/A | 
[V:2] ABA4 | 
[V:3] d2>A2cd | 
[V:4] D,3F,>C,F, | 
[V:1] G2c2B2- | 
[V:2] B2c2G2 | 
[V:3] e2>c2ed- | 
[V:4] E,2C,2zG,- | 
[V:1] BB2<A2G/F/ | 
[V:2] g2f>ec2 | 
[V:3] dBdc2A | 
[V:4] G,/F,/G,D,F,>E,F, | 
[V:1] ED2G2^F | 
[V:2] zGBcd2 | 
[V:3] cB2GA2 | 
[V:4] C,G,2E,D,2 | 
[V:1] G6 ||  
[V:2] d6 ||  
[V:3] G6 ||  
[V:4] G,,6 ||  
[V:1] [M:2/2]z4 | 
[V:2] [M:2/2]B4- | 
[V:3] [M:2/2]z4 | 
[V:4] [M:2/2]G,3F,/E,/ | 
[V:1] z4 | 
[V:2] B4- | 
[V:3] z4 | 
[V:4] D,2E,2 | 
[V:1] z4 | 
[V:2] B4- | 
[V:3] z4 | 
[V:4] D,B,,>C,D, | 
[V:1] z4 | 
[V:2] B4 | 
[V:3] z4 | 
[V:4] G,,2zG, | 
[V:1] z4 | 
[V:2] c3A | 
[V:3] z4 | 
[V:4] A,3F, | 
[V:1] z4 | 
[V:2] B2zc | 
[V:3] z4 | 
[V:4] G,2A,2 | 
[V:1] z4 | 
[V:2] BGA2 | 
[V:3] z4 | 
[V:4] zG,2F, | 
[V:1] z4 | 
[V:2] B2zc | 
[V:3] z4 | 
[V:4] G,2A,2 | 
[V:1] z4 | 
[V:2] BGA2 | 
[V:3] z4 | 
[V:4] zG,2F, | 
[V:1] z4 | 
[V:2] BcBc- | 
[V:3] z4 | 
[V:4] G,E,D,E,- | 
[V:1] z4 | 
[V:2] cB2A | 
[V:3] z4 | 
[V:4] E,D,C,3/B,,/ | 
[V:1] z4 | 
[V:2] B4- | 
[V:3] z4 | 
[V:4] G,,>A,,B,,C, | 
[V:1] z4 | 
[V:2] B4 | 
[V:3] z4 | 
[V:4] D,E,>F,G, | 
[V:1] z4 | 
[V:2] A4 | 
[V:3] z4 | 
[V:4] A,/G,/F,/E,/F,2 | 
[V:1] B4- | 
[V:2] G>ABc | 
[V:3] z4 | 
[V:4] G,2z2 | 
[V:1] B4 | 
[V:2] de>fg | 
[V:3] z4 | 
[V:4] z4 | 
[V:1] A4 | 
[V:2] a/g/f/e/f2 | 
[V:3] z4 | 
[V:4] z2D,2 | 
[V:1] GB>cd- | 
[V:2] g2d3/c/ | 
[V:3] z4 | 
[V:4] E,G,2F, | 
[V:1] d/c/B/A/GA- | 
[V:2] B/A/G2c | 
[V:3] z4 | 
[V:4] G,>F, E,/D,/C, | 
[V:1] AG2^F | 
[V:2] BGA2 | 
[V:3] z4 | 
[V:4] G,E,D,2 | 
[V:1] G2z2 | 
[V:2] G2zB- | 
[V:3] z4 | 
[V:4] E,2D,2- | 
[V:1] z4 | 
[V:2] B2c2 | 
[V:3] z4 | 
[V:4] D,E,3 | 
[V:1] B4 | 
[V:2] d3e- | 
[V:3] z4 | 
[V:4] D,G,2E, | 
[V:1] c2d2 | 
[V:2] e2d2 | 
[V:3] z4 | 
[V:4] A,2D,3/E,/ | 
[V:1] z4 | 
[V:2] A2Bc- | 
[V:3] z4 | 
[V:4] F,2G,A,- | 
[V:1] A2Bc- | 
[V:2] cB/A/GE | 
[V:3] z4 | 
[V:4] A,/E,/F,G,2 | 
[V:1] cB/A/GE | 
[V:2] F2GA- | 
[V:3] z4 | 
[V:4] z4 | 
[V:1] F2GA- | 
[V:2] AG/F/EF | 
[V:3] z4 | 
[V:4] z4 | 
[V:1] AG/F/E2 | 
[V:2] Dd2^c | 
[V:3] z4 | 
[V:4] z4 | 
[V:1] zdB3/c/ | 
[V:2] d2zd | 
[V:3] z4 | 
[V:4] z4 | 
[V:1] d>cA3/G/ | 
[V:2] B>cd3/c/ | 
[V:3] z4 | 
[V:4] z4 | 
[V:1] F/E<FE/D/C/ | 
[V:2] Ad>cB/A/ | 
[V:3] z4 | 
[V:4] z4 | 
[V:1] B,/A,/A2^G | 
[V:2] dcB2 | 
[V:3] z4 | 
[V:4] z4 | 
[V:1] A2z2 | 
[V:2] A2Bd- | 
[V:3] z4 | 
[V:4] zA,G,F, | 
[V:1] z4 | 
[V:2] dcd2 | 
[V:3] z4 | 
[V:4] E,2D,F,- | 
[V:1] zAGF | 
[V:2] A2z2 | 
[V:3] z4 | 
[V:4] F,E,/D,/E,D,- | 
[V:1] E2DF- | 
[V:2] z4 | 
[V:3] z4 | 
[V:4] D,C,D,2 | 
[V:1] FE/D/ED- | 
[V:2] zAGF | 
[V:3] z4 | 
[V:4] A,,2C,D, | 
[V:1] D^CD3/F/ | 
[V:2] E2D2 | 
[V:3] z4 | 
[V:4] A,,2B,,D,- | 
[V:1] E2D2 | 
[V:2] zGFD | 
[V:3] z4 | 
[V:4] D,C,D,B,, | 
[V:1] zGFD | 
[V:2] E2DF | 
[V:3] z4 | 
[V:4] C,2D,2 | 
[V:1] E2D3/E/ | 
[V:2] GABc | 
[V:3] z4 | 
[V:4] z4 | 
[V:1] F>GAB | 
[V:2] d2D2 | 
[V:3] z4 | 
[V:4] z4 | 
[V:1] cd2D- | 
[V:2] EDG3/A/ | 
[V:3] z4 | 
[V:4] z4 | 
[V:1] DEDG- | 
[V:2] BcBe- | 
[V:3] z4 | 
[V:4] G,,>A,,B,,C,/D,/ | 
[V:1] G/A/BcA- | 
[V:2] edcd- | 
[V:3] z4 | 
[V:4] E,/F,/G,A,D,- | 
[V:1] AG2^F | 
[V:2] dBA2 | 
[V:3] z4 | 
[V:4] D,/E,/G,D,2 | 
[V:1] G4 ||  
[V:2] G4 ||  
[V:3] z4 ||  
[V:4] G,,4 ||  
[V:1] [M:3/2]D6 | 
[V:2] [M:3/2]z6 | 
[V:3] [M:3/2]D6 | 
[V:4] [M:3/2]D,6 | 
[V:1] D4G2 | 
[V:2] z6 | 
[V:3] G6 | 
[V:4] B,,2G,,2B,,2 | 
[V:1] E2F4 | 
[V:2] z6 | 
[V:3] A6 | 
[V:4] C,2D,4 | 
[V:1] G6 | 
[V:2] d4B2 | 
[V:3] B4B2 | 
[V:4] G,,4G,2 | 
[V:1] z6 | 
[V:2] A2c4 | 
[V:3] c2>B2A2 | 
[V:4] A,2>E,2F,2 | 
[V:1] d4B2 | 
[V:2] B4G2 | 
[V:3] G4d2 | 
[V:4] G,6 | 
[V:1] G2c3B | 
[V:2] G4z2 | 
[V:3] e4d2 | 
[V:4] E,2C,2G,2- | 
[V:1] B4A2 | 
[V:2] G2A4 | 
[V:3] B2c4 | 
[V:4] G,2F,4 | 
[V:1] B6 | 
[V:2] G2d3c | 
[V:3] B6 | 
[V:4] G,6- | 
[V:1] z6 | 
[V:2] B2A3G | 
[V:3] G2d3c | 
[V:4] G,4D,2 | 
[V:1] z6 | 
[V:2] G4^F2 | 
[V:3] B2A3G | 
[V:4] G,,2D,4 | 
[V:1] d2>c2A2 | 
[V:2] G2z2c2 | 
[V:3] G4^F2 | 
[V:4] B,,2A,,4 | 
[V:1] B4A2 | 
[V:2] B2d4 | 
[V:3] G4D2 | 
[V:4] G,,4D,2 | 
[V:1] G4^F2 | 
[V:2] c2d4 | 
[V:3] G2A4 | 
[V:4] E,2D,4 | 
[V:1] G4z2 | 
[V:2] B4d2 | 
[V:3] G6 | 
[V:4] G,,2>A,,2B,,2 | 
[V:1] G2>F2E2 | 
[V:2] e2>d2c2 | 
[V:3] z6 | 
[V:4] C,2>D,2E,F, | 
[V:1] D4G2 | 
[V:2] B4G2 | 
[V:3] G2B4 | 
[V:4] G,4E,2 | 
[V:1] F2E3D | 
[V:2] z6 | 
[V:3] c2>A2B2 | 
[V:4] A,4G,2 | 
[V:1] D2G3E | 
[V:2] A2B2G2 | 
[V:3] d4c2 | 
[V:4] F,2E,4 | 
[V:1] F2A4 | 
[V:2] A4z2 | 
[V:3] d4A2 | 
[V:4] D,4F,2 | 
[V:1] D2F3E | 
[V:2] d6 | 
[V:3] _B2A3G | 
[V:4] G,2F,2D,2- | 
[V:1] D4^C2 | 
[V:2] A6 | 
[V:3] F2E4 | 
[V:4] D,2A,,4 | 
[V:1] D4z2 | 
[V:2] f6- | 
[V:3] D6 | 
[V:4] D,6- | 
[V:1] d4c2 | 
[V:2] f2e4 | 
[V:3] z6 | 
[V:4] D,2A,4 | 
[V:1] d4A2- | 
[V:2] d6- | 
[V:3] f6- | 
[V:4] z6 | 
[V:1] ABcBAG | 
[V:2] d2A4 | 
[V:3] f2e4 | 
[V:4] z6 | 
[V:1] F2>G2A2 | 
[V:2] A6 | 
[V:3] d4f2 | 
[V:4] D,6- | 
[V:1] D4d2 | 
[V:2] F2>G2A2 | 
[V:3] f2f2f2 | 
[V:4] D,6 | 
[V:1] c2B3A | 
[V:2] G2>A2B2 | 
[V:3] e2d4 | 
[V:4] E,2G,3F, | 
[V:1] A4G2 | 
[V:2] cde4 | 
[V:3] c2B4 | 
[V:4] A,2E,4 | 
[V:1] A2c2B2 | 
[V:2] c2A2B2 | 
[V:3] A4G2 | 
[V:4] F,4G,2- | 
[V:1] G4^F2 | 
[V:2] d6 | 
[V:3] B2A4 | 
[V:4] G,2D,4 | 
[V:1] G6 | 
[V:2] B4G2 | 
[V:3] G4B2 | 
[V:4] E,6 | 
[V:1] F2E4 | 
[V:2] A2>B2c2 | 
[V:3] d4c2 | 
[V:4] D,2A,4 | 
[V:1] D2F3G | 
[V:2] A4F2 | 
[V:3] d6 | 
[V:4] D,6 | 
[V:1] A4G2 | 
[V:2] E2G4 | 
[V:3] c2B4 | 
[V:4] A,,2E,4 | 
[V:1] A4z2 | 
[V:2] z2z2F2 | 
[V:3] A6 | 
[V:4] F,4D,2 | 
[V:1] c4G2- | 
[V:2] G4c2 | 
[V:3] e6 | 
[V:4] C,6 | 
[V:1] G2B2A2 | 
[V:2] B2G2A2 | 
[V:3] d6- | 
[V:4] G,4F,2 | 
[V:1] B2>c2d2 | 
[V:2] G2g2f2- | 
[V:3] d2d4 | 
[V:4] G,4D,2 | 
[V:1] A4B2 | 
[V:2] f4d2 | 
[V:3] c2d4 | 
[V:4] F,4G,2 | 
[V:1] G4^F2 | 
[V:2] c2d4 | 
[V:3] G2A4 | 
[V:4] E,2D,4 | 
[V:1] G6 ||  
[V:2] d6 ||  
[V:3] G6 ||  
[V:4] G,,6 ||  
[V:1] [M:2/2]z4 | 
[V:2] [M:2/2]d4- | 
[V:3] [M:2/2]z4 | 
[V:4] [M:2/2]D,>E,F,G, | 
[V:1] z4 | 
[V:2] d2c2 | 
[V:3] z4 | 
[V:4] F,G,E,A, | 
[V:1] D>EFG | 
[V:2] d2AB | 
[V:3] z4 | 
[V:4] z4 | 
[V:1] FGEA- | 
[V:2] ABc2 | 
[V:3] z4 | 
[V:4] z4 | 
[V:1] AG2^F | 
[V:2] dBA2 | 
[V:3] z4 | 
[V:4] z4 | 
[V:1] G2z2 | 
[V:2] G>FGE | 
[V:3] z4 | 
[V:4] G,,>A,,B,,C, | 
[V:1] z4 | 
[V:2] AFE2 | 
[V:3] z4 | 
[V:4] A,,D,2^C, | 
[V:1] z4 | 
[V:2] z2D3/E/ | 
[V:3] z4 | 
[V:4] D,2z2 | 
[V:1] D2F2 | 
[V:2] FGDd- | 
[V:3] z4 | 
[V:4] z4 | 
[V:1] E2D2- | 
[V:2] d^cd2 | 
[V:3] z4 | 
[V:4] z4 | 
[V:1] DB,A,D | 
[V:2] z4 | 
[V:3] z4 | 
[V:4] D,>E,F,G, | 
[V:1] EF2D- | 
[V:2] z4 | 
[V:3] z4 | 
[V:4] E,A,2G,/F,/ | 
[V:1] D^CD2 | 
[V:2] G2A2 | 
[V:3] z4 | 
[V:4] E,2D,2- | 
[V:1] z4 | 
[V:2] B2c2 | 
[V:3] z4 | 
[V:4] D,E,2F,- | 
[V:1] z4 | 
[V:2] AB2c | 
[V:3] z4 | 
[V:4] F,G,2E, | 
[V:1] z4 | 
[V:2] dBcA- | 
[V:3] z4 | 
[V:4] F,D,E,C, | 
[V:1] z4 | 
[V:2] AG2^F | 
[V:3] z4 | 
[V:4] D,B,,A,,2 | 
[V:1] G2A2 | 
[V:2] G2z2 | 
[V:3] z4 | 
[V:4] G,,C,2D,- | 
[V:1] B2c2 | 
[V:2] z2c2 | 
[V:3] z4 | 
[V:4] D,E,2F,- | 
[V:1] AB2c | 
[V:2] d2e2 | 
[V:3] z4 | 
[V:4] F,G,2F,/E,/ | 
[V:1] d2Bc- | 
[V:2] f2de- | 
[V:3] z4 | 
[V:4] D,2z2 | 
[V:1] cB/A/BG- | 
[V:2] efg2 | 
[V:3] z4 | 
[V:4] z4 | 
[V:1] GA2G/F/ | 
[V:2] ef2e/d/ | 
[V:3] z4 | 
[V:4] z2zD, | 
[V:1] E2D/E/F/G/ | 
[V:2] c2d2 | 
[V:3] z4 | 
[V:4] A,2D,3/E,/ | 
[V:1] AB2G- | 
[V:2] cd2c/B/ | 
[V:3] z4 | 
[V:4] F,/E,/D,/C,<B,,C,/ | 
[V:1] G^FG2 | 
[V:2] A2G2- | 
[V:3] z4 | 
[V:4] D,2zE,- | 
[V:1] z4 | 
[V:2] GA2G/F/ | 
[V:3] z4 | 
[V:4] E,F,2E,/D,/ | 
[V:1] z4 | 
[V:2] E2D/E/F/G/ | 
[V:3] z4 | 
[V:4] C,2D,2 | 
[V:1] z4 | 
[V:2] AB2G- | 
[V:3] z4 | 
[V:4] C,D,B,,C, | 
[V:1] z4 | 
[V:2] G^FG3/A/ | 
[V:3] z4 | 
[V:4] A,,2G,,2 | 
[V:1] d2cd- | 
[V:2] B/c/def- | 
[V:3] z4 | 
[V:4] z4 | 
[V:1] dc/B/A2 | 
[V:2] f/d/g2^f | 
[V:3] z4 | 
[V:4] z2D,2 | 
[V:1] G>A B/c/d- | 
[V:2] g3f | 
[V:3] z4 | 
[V:4] E,3F, | 
[V:1] dcAB- | 
[V:2] e2d2- | 
[V:3] z4 | 
[V:4] G,A,F,G,- | 
[V:1] BA2^G | 
[V:2] dcB2 | 
[V:3] z4 | 
[V:4] G,A,E,2 | 
[V:1] A4 | 
[V:2] A4 | 
[V:3] z4 | 
[V:4] zF,>G,A,- | 
[V:1] zAB2 | 
[V:2] z4 | 
[V:3] z4 | 
[V:4] A,/E,/F,G,3/B,/ | 
[V:1] c2dc/B/ | 
[V:2] zAB2 | 
[V:3] z4 | 
[V:4] A,2G,2 | 
[V:1] A2F3/G/ | 
[V:2] c2d3/c/ | 
[V:3] z4 | 
[V:4] (3F, G, A,D,2 | 
[V:1] A/B<cB/A- | 
[V:2] A2F3/G/ | 
[V:3] z4 | 
[V:4] z4 | 
[V:1] AG/F/EG- | 
[V:2] A/B<cd/e- | 
[V:3] z4 | 
[V:4] z4 | 
[V:1] GFE2 | 
[V:2] ed2^c | 
[V:3] z4 | 
[V:4] zD,A,2 | 
[V:1] d>c B/A/B- | 
[V:2] dg>fe/d/ | 
[V:3] z4 | 
[V:4] B,2zG,- | 
[V:1] Bc>BA/G/ | 
[V:2] e2f3/e/ | 
[V:3] z4 | 
[V:4] G,A,2D,- | 
[V:1] A2B3/A/ | 
[V:2] d/c/d2e- | 
[V:3] z4 | 
[V:4] D,/E,/F,G,2 | 
[V:1] G/F/G2A- | 
[V:2] e/d/c/B/c2- | 
[V:3] z4 | 
[V:4] C,>D,E,F,- | 
[V:1] AG2^F | 
[V:2] cBA2 | 
[V:3] z4 | 
[V:4] F,/E,/G,D,2 | 
[V:1] G4 |]  
[V:2] G4 |]  
[V:3] z4 |]  
[V:4] G,,4 |]  


